modules/hawcons-filled/icons/icon-20-basketball-hoop.svg

<?xml version="1.0" encoding="UTF-8" standalone="no"?>
<svg width="32px" height="32px" viewBox="0 0 32 32" version="1.1" xmlns="http://www.w3.org/2000/svg" xmlns:xlink="http://www.w3.org/1999/xlink" xmlns:sketch="http://www.bohemiancoding.com/sketch/ns">
    <!-- Generator: Sketch 3.0.3 (7891) - http://www.bohemiancoding.com/sketch -->
    <title>icon 20 basketball hoop</title>
    <desc>Created with Sketch.</desc>
    <defs></defs>
    <g id="Page-1" stroke="none" stroke-width="1" fill="none" fill-rule="evenodd" sketch:type="MSPage">
        <g id="icon-20-basketball-hoop" sketch:type="MSArtboardGroup" fill="#929292">
            <path d="M11.1441077,18.0709918 L11.7343269,20 L7,20 L7,7 L26,7 L26,20 L21.2701153,20 L21.2701153,20 L21.8580396,18.0667977 C21.8693375,18.0446432 21.8799875,18.0223759 21.8899801,18 L24,18 L24,9 L9,9 L9,18 L11.1100199,18 C11.1206432,18.0237883 11.1320096,18.047454 11.1441077,18.0709918 L11.1441077,18.0709918 Z M11.1100199,17 L10,17 L10,10 L23,10 L23,17 L21.8899801,17 C21.3803827,15.8588798 19.1608537,15 16.5,15 C13.8391463,15 11.6196173,15.8588798 11.1100199,17 L11.1100199,17 L11.1100199,17 Z M13.0147324,24.1847374 L12.0402972,21 L6,21 L6,6 L27,6 L27,21 L20.9659958,21 L20.9659958,21 L19.9842529,24.2281494 L19.9774766,24.2281494 C19.7793218,25.225283 18.2979877,26 16.5,26 C14.6760024,26 13.1778861,25.2027065 13.0147324,24.1847374 L13.0147324,24.1847374 L13.0147324,24.1847374 Z M16.5,19 C18.9852814,19 21,18.3284271 21,17.5 C21,16.6715729 18.9852814,16 16.5,16 C14.0147186,16 12,16.6715729 12,17.5 C12,18.3284271 14.0147186,19 16.5,19 L16.5,19 Z" id="basketball-hoop" sketch:type="MSShapeGroup"></path>
        </g>
    </g>
</svg>

<svg width="32" height="32" xmlns="http://www.w3.org/2000/svg"><path d="M11.144 18.071l.59 1.929H7V7h19v13h-4.73l.588-1.933.032-.067H24V9H9v9h2.11c.01.024.022.047.034.071zM11.11 17H10v-7h13v7h-1.11c-.51-1.141-2.73-2-5.39-2-2.66 0-4.88.859-5.39 2zm1.905 7.185L12.04 21H6V6h21v15h-6.034l-.982 3.228h-.007C19.78 25.225 18.298 26 16.5 26c-1.824 0-3.322-.797-3.485-1.815zM16.5 19c2.485 0 4.5-.672 4.5-1.5S18.985 16 16.5 16s-4.5.672-4.5 1.5 2.015 1.5 4.5 1.5z" fill="#929292" fill-rule="evenodd"/></svg>
